X:1
T: Fasten the Wig on Her
C:
R:Jig
Q:180
K:G
M:6/8
L:1/16
B4B2 B2A2B2|d2e2f2 g2d2B2|A4A2 A2G2A2|B2d2e2 d2B2A2|B4B2 B2A2B2|d2e2f2 g2f2g2|e2a2a2 a4g2|f2d2d2 d4c2|
B4B2 B2A2B2|d2e2f2 g2d2B2|A4A2 A2G2A2|B2d2e2 d2B2A2|B4B2 B2A2B2|d2e2f2 g2f2g2|e2a2a2 a4g2|f2d2d2 d2e2f2|
g2a2g2 g2f2e2|d4d2 d2c2B2|A4A2 A2G2A2|B2d2d2 d2e2f2|g4g2 f2f2e2|d4d2 d2^c2d2|e2a2a2 a4g2|f2d2d2 d2e2f2|
g2a2g2 g2f2e2|d4d2 d2c2B2|A4A2 A2G2A2|B2d2d2 d2e2f2|g4g2 f2f2e2|d4d2 d2^c2d2|e2a2a2 a4g2|f2d2d2 d6||
